src/icons/Instagram.svg

<svg width="24" height="24" viewBox="0 0 24 24" fill="none" xmlns="http://www.w3.org/2000/svg">
<path d="M21.2211 10.1849H19.1495C19.3179 10.7899 19.4021 11.395 19.4021 12C19.4021 13.0084 19.2084 13.9664 18.8211 14.874C18.4337 15.7815 17.9032 16.5714 17.2295 17.2437C16.5558 17.916 15.7642 18.4454 14.8547 18.8319C13.9453 19.2185 12.9853 19.4118 11.9747 19.4118C10.9642 19.4118 10.0126 19.2185 9.12 18.8319C8.22737 18.4454 7.44421 17.916 6.77053 17.2437C6.09684 16.5714 5.56632 15.7815 5.17895 14.874C4.79158 13.9664 4.59789 13.0084 4.59789 12C4.59789 11.395 4.68211 10.7899 4.85053 10.1849H2.72842V20.3193C2.72842 20.5882 2.82105 20.8067 3.00632 20.9748C3.19158 21.1429 3.41895 21.2269 3.68842 21.2269H20.3116C20.5811 21.2269 20.8 21.1429 20.9684 20.9748C21.1368 20.8067 21.2211 20.5882 21.2211 20.3193V10.1849ZM21.2211 3.73109C21.2211 3.46218 21.1368 3.23529 20.9684 3.05042C20.8 2.86555 20.5811 2.77311 20.3116 2.77311H17.5326C17.2632 2.77311 17.0442 2.86555 16.8758 3.05042C16.7074 3.23529 16.6232 3.46218 16.6232 3.73109V6.45378C16.6232 6.72269 16.7074 6.94958 16.8758 7.13445C17.0442 7.31933 17.2632 7.41176 17.5326 7.41176H20.3116C20.5811 7.41176 20.8 7.31933 20.9684 7.13445C21.1368 6.94958 21.2211 6.72269 21.2211 6.45378V3.73109ZM11.9747 7.41176C10.6947 7.41176 9.60842 7.85714 8.71579 8.7479C7.82316 9.63866 7.37684 10.7227 7.37684 12C7.37684 12.6387 7.49474 13.2437 7.73053 13.8151C7.96632 14.3866 8.29474 14.8824 8.71579 15.3025C9.13684 15.7227 9.62526 16.0504 10.1811 16.2857C10.7368 16.521 11.3347 16.6387 11.9747 16.6387C12.6147 16.6387 13.2211 16.521 13.7937 16.2857C14.3663 16.0504 14.8632 15.7227 15.2842 15.3025C15.7053 14.8824 16.0337 14.3866 16.2695 13.8151C16.5053 13.2437 16.6232 12.6387 16.6232 12C16.6232 11.3613 16.5053 10.7647 16.2695 10.2101C16.0337 9.65546 15.7053 9.16807 15.2842 8.7479C14.8632 8.32773 14.3663 8 13.7937 7.76471C13.2211 7.52941 12.6147 7.41176 11.9747 7.41176ZM2.72842 24C1.95368 24 1.30526 23.7311 0.783158 23.1933C0.261053 22.6555 0 22 0 21.2269V2.77311C0 2 0.261053 1.34454 0.783158 0.806723C1.30526 0.268908 1.95368 0 2.72842 0H21.2211C21.9958 0 22.6526 0.268908 23.1916 0.806723C23.7305 1.34454 24 2 24 2.77311V21.2269C24 22 23.7305 22.6555 23.1916 23.1933C22.6526 23.7311 21.9958 24 21.2211 24H2.72842Z" fill="#FCF9F9"/>
</svg>

<svg width="24" height="24" fill="none" xmlns="http://www.w3.org/2000/svg"><path d="M21.221 10.185H19.15c.169.605.253 1.21.253 1.815a7.247 7.247 0 0 1-.58 2.874 7.433 7.433 0 0 1-1.592 2.37 7.449 7.449 0 0 1-2.375 1.588c-.91.386-1.87.58-2.88.58a7.105 7.105 0 0 1-2.855-.58 7.433 7.433 0 0 1-3.941-3.958A7.245 7.245 0 0 1 4.598 12c0-.605.084-1.21.253-1.815H2.728v10.134c0 .27.093.488.278.656a.978.978 0 0 0 .682.252h16.624a.89.89 0 0 0 .656-.252.886.886 0 0 0 .253-.656V10.185zm0-6.454a.974.974 0 0 0-.253-.68.847.847 0 0 0-.656-.278h-2.78a.847.847 0 0 0-.656.277.974.974 0 0 0-.253.681v2.723c0 .269.084.496.253.68a.847.847 0 0 0 .657.278h2.779c.27 0 .488-.093.656-.278a.974.974 0 0 0 .253-.68V3.73zm-9.246 3.68c-1.28 0-2.367.446-3.26 1.337-.892.89-1.338 1.975-1.338 3.252 0 .639.118 1.244.354 1.815.235.572.564 1.067.985 1.488a4.552 4.552 0 0 0 3.259 1.336c.64 0 1.246-.118 1.819-.353a4.513 4.513 0 0 0 1.49-.984 4.5 4.5 0 0 0 .986-1.487A4.711 4.711 0 0 0 16.623 12a4.526 4.526 0 0 0-1.339-3.252 4.513 4.513 0 0 0-1.49-.983 4.739 4.739 0 0 0-1.82-.353zM2.728 24c-.774 0-1.423-.269-1.945-.807S0 22 0 21.227V2.773C0 2 .261 1.345.783.807S1.953 0 2.728 0h18.493c.775 0 1.432.269 1.97.807.54.538.809 1.193.809 1.966v18.454c0 .773-.27 1.428-.808 1.966a2.684 2.684 0 0 1-1.97.807H2.727z" fill="#FCF9F9"/></svg>
